X:1
T:[ID 2-119a]
T:[ID 2-119a]
T:Bezeichnung standardisiert: Polonaise Polonoise
T:Urheber unbekannt Datum in der hier transkribierten schriftlichen Quelle: 1776 - 1791
C:Urheber unbekannt
C:Datum in der hier transkribierten schriftlichen Quelle: 1776 - 1791
L:1/8
M:3/4
K:D
V:1 treble 
V:1
 d2 f/e/d/c/ d/e/f/g/ | aa/b/ (ag) f2 | AA/B/ (AG) F2 | a2 b/a/g/f/ e/d/c/B/ | Ag/f/{f} e4 :: %5
!p! a2 b/a/g/f/ g2 |!f! c/A/e/A/ c/A/e/A/ c/A/e/c/ |!p! g2 a/g/f/e/ f2 | %8
!f! d/A/f/A/ d/A/f/A/ d/A/f/A/ | a2 b2 g/e/f/g/ | f/e/d/c/{c} d4 :| %11
"^Trio" !fermata!f>f (f3/2g/4a/4) (f3/2g/4a/4) | g>g (g3 a/b/) | c>c (c3/2d/4e/4) (c3/2d/4e/4) | %14
 dd/e/{c} d4 :: !fermata!a _c'2 b2 ^d | ee/^d/{d} e4 | g b2 a2 c | dd/c/{c} d4 | %19
 f>f (f3/2g/4a/4) (f3/2g/4a/4) | g>g (g3 a/b/) | c>c (c3/2d/4e/4) (c3/2d/4e/4) | %22
 dd/e/{c} d4"^D.C. Pol" :| %23

